SVG_Azure_Grouped/Endpoint/Intune Security Baseline.svg

<?xml version="1.0" encoding="UTF-8" standalone="no"?>
<!-- Generated by Microsoft Visio, SVG Export Intune Security Baseline.svg Page-1 -->

<svg
   xmlns:dc="http://purl.org/dc/elements/1.1/"
   xmlns:cc="http://creativecommons.org/ns#"
   xmlns:rdf="http://www.w3.org/1999/02/22-rdf-syntax-ns#"
   xmlns:svg="http://www.w3.org/2000/svg"
   xmlns="http://www.w3.org/2000/svg"
   xmlns:sodipodi="http://sodipodi.sourceforge.net/DTD/sodipodi-0.dtd"
   xmlns:inkscape="http://www.inkscape.org/namespaces/inkscape"
   width="0.78738689in"
   height="0.78747541in"
   viewBox="0 0 56.691855 56.69837"
   xml:space="preserve"
   class="st5"
   version="1.1"
   id="svg71"
   sodipodi:docname="Intune Security Baseline.svg"
   style="font-size:12px;overflow:visible;color-interpolation-filters:sRGB;fill:none;fill-rule:evenodd;stroke-linecap:square;stroke-miterlimit:3"
   inkscape:version="0.92.5 (2060ec1f9f, 2020-04-08)"><metadata
   id="metadata75"><rdf:RDF><cc:Work
       rdf:about=""><dc:format>image/svg+xml</dc:format><dc:type
         rdf:resource="http://purl.org/dc/dcmitype/StillImage" /></cc:Work></rdf:RDF></metadata><sodipodi:namedview
   pagecolor="#ffffff"
   bordercolor="#666666"
   borderopacity="1"
   objecttolerance="10"
   gridtolerance="10"
   guidetolerance="10"
   inkscape:pageopacity="0"
   inkscape:pageshadow="2"
   inkscape:window-width="640"
   inkscape:window-height="480"
   id="namedview73"
   showgrid="false"
   inkscape:zoom="1.8365233"
   inkscape:cx="37.795184"
   inkscape:cy="18.902831"
   inkscape:window-x="0"
   inkscape:window-y="0"
   inkscape:window-maximized="0"
   inkscape:current-layer="svg71" />
	<style
   type="text/css"
   id="style2">
	<![CDATA[
		.st1 {fill:#86d633;stroke:none;stroke-linecap:butt;stroke-width:0.75}
		.st2 {fill:url(#grad0-7);stroke:none;stroke-linecap:butt;stroke-width:0.75}
		.st3 {fill:#9cebff;stroke:none;stroke-linecap:butt;stroke-width:0.75}
		.st4 {fill:#0078d4;stroke:none;stroke-linecap:butt;stroke-width:0.75}
		.st5 {fill:none;fill-rule:evenodd;font-size:12px;overflow:visible;stroke-linecap:square;stroke-miterlimit:3}
	]]>
	</style>

	<defs
   id="Patterns_And_Gradients">
		<linearGradient
   id="grad0-7"
   x1="0"
   y1="48.571479"
   x2="39.73719"
   y2="48.571479"
   gradientTransform="scale(0.91627012,1.0913812)"
   gradientUnits="userSpaceOnUse">
			<stop
   offset="0"
   stop-color="#5e9624"
   stop-opacity="1"
   id="stop4" />
			<stop
   offset="0.26"
   stop-color="#70a828"
   stop-opacity="1"
   id="stop6" />
			<stop
   offset="0.79"
   stop-color="#9fd732"
   stop-opacity="1"
   id="stop8" />
			<stop
   offset="1"
   stop-color="#b4ec36"
   stop-opacity="1"
   id="stop10" />
		</linearGradient>
	</defs>
	<g
   id="g69"
   transform="translate(-5.6693772,-5.66779)">
		<title
   id="title14">Page-1</title>
		<g
   id="group19915-1"
   transform="translate(5.66929,-34.0157)">
			<title
   id="title16">Intune Security Baseline.19915</title>
			<g
   id="shape19916-2"
   transform="translate(0,-9.40651)">
				<title
   id="title18">Sheet.19916</title>
				<path
   d="m 39.7,71.17 c 0,12.7 -15.79,22.94 -19.21,25.01 a 1.1755,1.16721 0 0 1 -1.31,0 C 15.75,94.11 0,83.87 0,71.17 V 55.86 a 1.24268,1.2339 0 0 1 1.21,-1.2 c 12.26,-0.33 9.44,-5.57 18.64,-5.57 9.2,0 6.35,5.24 18.57,5.57 a 1.27626,1.26725 0 0 1 1.24,1.2 z"
   class="st1"
   id="path20"
   inkscape:connector-curvature="0"
   style="fill:#86d633;stroke:none;stroke-width:0.75;stroke-linecap:butt" />
			</g>
			<g
   id="shape19917-4"
   transform="translate(1.64571,-11.3605)">
				<title
   id="title23">Sheet.19917</title>
				<path
   d="m 36.41,73.26 c 0,11.67 -14.48,21.04 -17.6,22.94 a 1.10833,1.10051 0 0 1 -1.21,0 C 14.44,94.3 0,84.93 0,73.26 V 59.38 a 1.10833,1.10051 0 0 1 1.11,-1.1 c 11.25,-0.46 8.8,-5.27 17.09,-5.27 8.3,0 5.85,4.81 17.07,5.11 a 1.14192,1.13386 0 0 1 1.14,1.1 z"
   class="st2"
   id="path25"
   inkscape:connector-curvature="0"
   style="fill:url(#grad0-7);stroke:none;stroke-width:0.75;stroke-linecap:butt" />
			</g>
			<g
   id="shape19918-8"
   transform="translate(18.002)">
				<title
   id="title28">Sheet.19918</title>
				<path
   d="m 1.24,66.86 h 36.21 a 1.1755,1.16721 0 0 1 1.24,1.1 v 27.32 a 1.1755,1.16721 0 0 1 -1.24,1.1 H 1.24 A 1.20909,1.20056 0 0 1 0,95.28 V 68.03 a 1.20909,1.20056 0 0 1 1.24,-1.17 z"
   class="st3"
   id="path30"
   inkscape:connector-curvature="0"
   style="fill:#9cebff;stroke:none;stroke-width:0.75;stroke-linecap:butt" />
			</g>
			<g
   id="shape19919-10"
   transform="translate(18.002,-24.3446)">
				<title
   id="title33">Sheet.19919</title>
				<path
   d="m 1.18,91.21 h 36.34 a 1.10833,1.10051 0 0 1 1.17,1.03 v 4.14 H 0 v -4 a 1.10833,1.10051 0 0 1 1.18,-1.04 z"
   class="st4"
   id="path35"
   inkscape:connector-curvature="0"
   style="fill:#0078d4;stroke:none;stroke-width:0.75;stroke-linecap:butt" />
			</g>
			<g
   id="shape19920-12"
   transform="translate(26.6,-11.1385)">
				<title
   id="title38">Sheet.19920</title>
				<path
   d="M 24.82,93.88 H 0.94 C 0.4,93.88 0,94.14 0,94.41 v 1.43 c 0,0.3 0.4,0.54 0.94,0.54 h 23.88 c 0.54,0 0.97,-0.24 0.97,-0.54 v -1.33 c 0,-0.37 -0.53,-0.63 -0.97,-0.63 z"
   class="st4"
   id="path40"
   inkscape:connector-curvature="0"
   style="fill:#0078d4;stroke:none;stroke-width:0.75;stroke-linecap:butt" />
			</g>
			<g
   id="shape19921-14"
   transform="translate(26.6,-17.2747)">
				<title
   id="title43">Sheet.19921</title>
				<path
   d="M 24.82,94.01 H 0.94 C 0.4,94.01 0,94.24 0,94.54 v 1.3 c 0,0.3 0.4,0.54 0.94,0.54 h 23.88 c 0.54,0 0.97,-0.24 0.97,-0.54 v -1.3 c 0,-0.3 -0.53,-0.53 -0.97,-0.53 z"
   class="st4"
   id="path45"
   inkscape:connector-curvature="0"
   style="fill:#0078d4;stroke:none;stroke-width:0.75;stroke-linecap:butt" />
			</g>
			<g
   id="shape19922-16"
   transform="translate(26.6,-4.46874)">
				<title
   id="title48">Sheet.19922</title>
				<path
   d="M 24.82,93.98 H 0.94 C 0.4,93.98 0,94.21 0,94.51 v 1.33 c 0,0.3 0.4,0.54 0.94,0.54 h 23.88 c 0.54,0 0.97,-0.24 0.97,-0.54 v -1.33 c 0,-0.3 -0.53,-0.53 -0.97,-0.53 z"
   class="st4"
   id="path50"
   inkscape:connector-curvature="0"
   style="fill:#0078d4;stroke:none;stroke-width:0.75;stroke-linecap:butt" />
			</g>
			<g
   id="shape19923-18"
   transform="translate(21.0583,-16.9078)">
				<title
   id="title53">Sheet.19923</title>
				<ellipse
   cx="1.57853"
   cy="94.8106"
   rx="1.57853"
   ry="1.56739"
   class="st4"
   id="ellipse55"
   style="fill:#0078d4;stroke:none;stroke-width:0.75;stroke-linecap:butt" />
			</g>
			<g
   id="shape19924-20"
   transform="translate(21.0583,-10.8717)">
				<title
   id="title58">Sheet.19924</title>
				<ellipse
   cx="1.57853"
   cy="94.8106"
   rx="1.57853"
   ry="1.56739"
   class="st4"
   id="ellipse60"
   style="fill:#0078d4;stroke:none;stroke-width:0.75;stroke-linecap:butt" />
			</g>
			<g
   id="shape19925-22"
   transform="translate(21.0583,-4.1019)">
				<title
   id="title63">Sheet.19925</title>
				<ellipse
   cx="1.57853"
   cy="94.8106"
   rx="1.57853"
   ry="1.56739"
   class="st4"
   id="ellipse65"
   style="fill:#0078d4;stroke:none;stroke-width:0.75;stroke-linecap:butt" />
			</g>
		</g>
	</g>
</svg>

<?xml version="1.0" encoding="UTF-8" standalone="no"?>
<!DOCTYPE svg PUBLIC "-//W3C//DTD SVG 1.1//EN" "http://www.w3.org/Graphics/SVG/1.1/DTD/svg11.dtd">
<!-- Generated by Microsoft Visio, SVG Export Intune Security Baseline.svg Page-1 -->
<svg xmlns="http://www.w3.org/2000/svg" xmlns:xlink="http://www.w3.org/1999/xlink" xmlns:ev="http://www.w3.org/2001/xml-events"
		width="0.944882in" height="1.33858in" viewBox="0 0 68.0315 96.378" xml:space="preserve" color-interpolation-filters="sRGB"
		class="st5">
	<style type="text/css">
	<![CDATA[
		.st1 {fill:#86d633;stroke:none;stroke-linecap:butt;stroke-width:0.75}
		.st2 {fill:url(#grad0-7);stroke:none;stroke-linecap:butt;stroke-width:0.75}
		.st3 {fill:#9cebff;stroke:none;stroke-linecap:butt;stroke-width:0.75}
		.st4 {fill:#0078d4;stroke:none;stroke-linecap:butt;stroke-width:0.75}
		.st5 {fill:none;fill-rule:evenodd;font-size:12px;overflow:visible;stroke-linecap:square;stroke-miterlimit:3}
	]]>
	</style>

	<defs id="Patterns_And_Gradients">
		<linearGradient id="grad0-7" x1="0" y1="0" x2="1" y2="0" gradientTransform="rotate(-124.76538136097 0.5 0.5)">
			<stop offset="0" stop-color="#5e9624" stop-opacity="1"/>
			<stop offset="0.26" stop-color="#70a828" stop-opacity="1"/>
			<stop offset="0.79" stop-color="#9fd732" stop-opacity="1"/>
			<stop offset="1" stop-color="#b4ec36" stop-opacity="1"/>
		</linearGradient>
	</defs>
	<g>
		<title>Page-1</title>
		<g id="group19460-1" transform="translate(5.66929,-34.0157)">
			<title>Intune Security Baseline.19460</title>
			<g id="shape19461-2" transform="translate(0,-9.40651)">
				<title>Sheet.19461</title>
				<path d="M39.7 71.17 C39.7 83.87 23.91 94.11 20.49 96.18 A1.1755 1.16721 0 0 1 19.18 96.18 C15.75 94.11 0 83.87 0
							 71.17 L0 55.86 A1.24268 1.2339 0 0 1 1.21 54.66 C13.47 54.33 10.65 49.09 19.85 49.09 C29.05 49.09 26.2
							 54.33 38.42 54.66 A1.27626 1.26725 0 0 1 39.66 55.86 L39.7 71.17 Z" class="st1"/>
			</g>
			<g id="shape19462-4" transform="translate(1.64571,-11.3605)">
				<title>Sheet.19462</title>
				<path d="M36.41 73.26 C36.41 84.93 21.93 94.3 18.81 96.2 A1.10833 1.10051 0 0 1 17.6 96.2 C14.44 94.3 0 84.93 0 73.26
							 L0 59.38 A1.10833 1.10051 0 0 1 1.11 58.28 C12.36 57.82 9.91 53.01 18.2 53.01 C26.5 53.01 24.05 57.82
							 35.27 58.12 A1.14192 1.13386 0 0 1 36.41 59.22 L36.41 73.26 Z" class="st2"/>
			</g>
			<g id="shape19463-8" transform="translate(18.002,0)">
				<title>Sheet.19463</title>
				<path d="M1.24 66.86 L37.45 66.86 A1.1755 1.16721 0 0 1 38.69 67.96 L38.69 95.28 A1.1755 1.16721 0 0 1 37.45 96.38
							 L1.24 96.38 A1.20909 1.20056 0 0 1 0 95.28 L0 68.03 A1.20909 1.20056 0 0 1 1.24 66.86 Z" class="st3"/>
			</g>
			<g id="shape19464-10" transform="translate(18.002,-24.3446)">
				<title>Sheet.19464</title>
				<path d="M1.18 91.21 L37.52 91.21 A1.10833 1.10051 0 0 1 38.69 92.24 L38.69 96.38 L0 96.38 L0 92.38 A1.10833 1.10051
							 0 0 1 1.18 91.34 L1.18 91.21 Z" class="st4"/>
			</g>
			<g id="shape19465-12" transform="translate(26.6,-11.1385)">
				<title>Sheet.19465</title>
				<path d="M24.82 93.88 L0.94 93.88 C0.4 93.88 0 94.14 0 94.41 L0 95.84 C0 96.14 0.4 96.38 0.94 96.38 L24.82 96.38
							 C25.36 96.38 25.79 96.14 25.79 95.84 L25.79 94.51 C25.79 94.14 25.26 93.88 24.82 93.88 Z" class="st4"/>
			</g>
			<g id="shape19466-14" transform="translate(26.6,-17.2747)">
				<title>Sheet.19466</title>
				<path d="M24.82 94.01 L0.94 94.01 C0.4 94.01 0 94.24 0 94.54 L0 95.84 C0 96.14 0.4 96.38 0.94 96.38 L24.82 96.38
							 C25.36 96.38 25.79 96.14 25.79 95.84 L25.79 94.54 C25.79 94.24 25.26 94.01 24.82 94.01 Z" class="st4"/>
			</g>
			<g id="shape19467-16" transform="translate(26.6,-4.46874)">
				<title>Sheet.19467</title>
				<path d="M24.82 93.98 L0.94 93.98 C0.4 93.98 0 94.21 0 94.51 L0 95.84 C0 96.14 0.4 96.38 0.94 96.38 L24.82 96.38
							 C25.36 96.38 25.79 96.14 25.79 95.84 L25.79 94.51 C25.79 94.21 25.26 93.98 24.82 93.98 Z" class="st4"/>
			</g>
			<g id="shape19468-18" transform="translate(21.0583,-16.9078)">
				<title>Sheet.19468</title>
				<ellipse cx="1.57853" cy="94.8106" rx="1.57853" ry="1.56739" class="st4"/>
			</g>
			<g id="shape19469-20" transform="translate(21.0583,-10.8717)">
				<title>Sheet.19469</title>
				<ellipse cx="1.57853" cy="94.8106" rx="1.57853" ry="1.56739" class="st4"/>
			</g>
			<g id="shape19470-22" transform="translate(21.0583,-4.1019)">
				<title>Sheet.19470</title>
				<ellipse cx="1.57853" cy="94.8106" rx="1.57853" ry="1.56739" class="st4"/>
			</g>
		</g>
	</g>
</svg>
